;Project 0102
;Created by Estlcam version 11 build 11.117
;Machining time about 00:02:11 hours

G90
M03 S24000
G00 X0.0000 Y0.0000 Z0.0000
G00 Z2.0000


;No. 1: Engraving 4
G00 X70.1701 Y39.8812
G00 Z0.5000
G01 Z-1.0000 F180 S24000
G02 X59.3758 Y38.9235 I-6.3704 J10.4906 F900
G02 X53.3829 Y42.9808 I5.6506 J14.8010
G02 X50.1172 Y46.3594 I601.2423 J584.4261
G03 X54.5859 Y48.2379 I1.3446 J3.0558
G03 X51.0243 Y52.5812 I-3.1714 J1.0313
G03 X50.1172 Y52.3125 I0.7892 J-4.3304
G03 X46.2782 Y56.2996 I-3.0341 J0.9203
G03 X43.7422 Y53.1797 I0.6809 J-3.1441
G01 X43.7441 Y53.0617
G03 X44.4688 Y51.1641 I3.0450 J0.0755
G03 X41.5717 Y48.0665 I0.4046 J-3.2819
G01 X41.5625 Y47.8125
G01 X41.5727 Y47.5429
G03 X44.8956 Y44.4881 I3.2123 J0.1595
G03 X47.2109 Y45.6563 I-0.2599 J3.3936
G02 X46.4844 Y40.8516 I-227.2487 J31.9072
G02 X40.8795 Y32.7183 I-11.7803 J2.1203
G02 X33.2766 Y30.1445 I-9.7050 J16.1522
G02 X29.9970 Y29.9700 I-2.7635 J21.0337
G02 X24.4523 Y31.9269 I0.5641 J10.4321
G02 X22.9956 Y33.6521 I2.4458 J3.5427
G01 X22.8747 Y34.0194
G01 X22.8201 Y34.3888
G01 X22.8359 Y34.7578
G02 X23.3451 Y35.4762 I0.9155 J-0.1093
G02 X24.2467 Y35.4805 I0.4573 J-1.3478
G02 X26.3655 Y34.3658 I-2.6150 J-7.5419
G03 X27.0863 Y34.0366 I1.0848 J1.4214
G03 X30.6251 Y33.8451 I2.2255 J8.3330
G01 X30.8281 Y33.8906
G03 X26.5121 Y37.2637 I-3.9027 J-0.5459
G02 X24.7546 Y37.1765 I-1.5914 J14.3244
G02 X24.0492 Y37.4783 I-0.0108 J0.9502
G02 X23.8672 Y37.9453 I0.7291 J0.5531
G01 X23.8728 Y38.5748
G02 X24.3517 Y39.8250 I1.8912 J-0.0077
G02 X25.8086 Y40.3428 I1.3358 J-1.4501
G02 X28.3178 Y39.9642 I-0.5230 J-11.9699
G03 X30.7788 Y39.5099 I3.7930 J13.6567
G03 X32.1914 Y39.8137 I0.2291 J2.3705
G03 X34.4728 Y42.3917 I-1.5448 J3.6655
G03 X34.9844 Y44.6635 I-31.6190 J8.3137
G02 X35.8860 Y46.8065 I5.0523 J-0.8646
G01 X36.2158 Y47.1818
G01 X36.6172 Y47.5313
G02 X34.8315 Y47.4050 I-1.0621 J2.3306
G02 X32.7118 Y48.1404 I3.4816 J13.4580
G03 X30.4700 Y48.9389 I-7.0152 J-16.1478
G03 X28.3183 Y49.0021 I-1.1942 J-3.9996
G03 X26.4688 Y47.5313 I0.9561 J-3.1006
G02 X25.0219 Y45.0154 I-21.3073 J10.5797
G02 X23.6472 Y43.5436 I-11.4020 J9.2719
G02 X22.6217 Y42.9454 I-1.4626 J1.3294
G02 X20.9609 Y43.3125 I-0.4665 J1.8299
G03 X20.9578 Y44.1940 I-522.1600 J-1.4026
G02 X21.1016 Y45.7969 I27.5496 J-1.6626
G03 X24.1495 Y47.3833 I0.1043 J3.5208
G03 X25.3203 Y51.0234 I-5.9571 J3.9243
G03 X21.9016 Y49.7781 I-0.0863 J-5.0784
G03 X21.2422 Y48.9844 I2.8597 J-3.0465
G03 X21.8072 Y56.8367 I-132.1440 J13.4543
G03 X21.8281 Y58.2656 I-49.6602 J1.4431
G01 X21.9284 Y60.7350
G02 X56.7540 Y88.0495 I30.0813 J-2.4950
G02 X77.5391 Y74.0859 I-4.9334 J-29.7946
G02 X74.1875 Y71.0391 I-49.2413 J50.7986
G03 X72.7999 Y67.9425 I2.9733 J-3.1915
G01 X72.8185 Y67.5720
G03 X74.2792 Y65.1732 I3.3218 J0.3786
G01 X74.7158 Y64.8944
G01 X75.2188 Y64.6406
G03 X73.8960 Y64.3346 I0.0115 J-3.0616
G03 X73.3518 Y63.4667 I0.5934 J-0.9765
G01 X73.3303 Y63.2966
G01 X73.3198 Y63.1101
G01 X73.3203 Y62.9063
G03 X72.2256 Y64.3589 I-16.6597 J-11.4160
G02 X71.4453 Y66.0938 I4.2067 J2.9350
G03 X68.9375 Y67.2792 I-2.7522 J-2.5771
G02 X67.2266 Y67.6875 I0.4796 J5.7980
G02 X67.6639 Y65.7890 I-8.9157 J-3.0535
G03 X68.4828 Y63.6959 I4.3661 J0.5014
G03 X69.1250 Y63.0469 I3.1719 J2.4965
G02 X71.4560 Y61.7903 I-0.6390 J-3.9758
G02 X71.7266 Y61.4531 I-3.3326 J-2.9511
G03 X70.1153 Y60.8888 I0.4230 J-3.7905
G03 X69.4104 Y59.5107 I1.0322 J-1.3972
G01 X69.4035 Y59.3263
G01 X69.4063 Y59.1328
G03 X68.1784 Y61.6551 I-8.8168 J-2.7322
G01 X68.0938 Y61.7578
G03 X65.4502 Y62.2398 I-2.0104 J-3.5359
G03 X62.4453 Y60.7266 I0.4345 J-4.6029
G02 X59.2208 Y55.7991 I-26.4352 J13.7805
G02 X58.2500 Y54.7734 I-9.4502 J7.9721
G02 X61.2807 Y51.3766 I-8.5448 J-10.6742
G03 X62.5859 Y49.5703 I20.3039 J13.2969
G03 X64.6893 Y48.5313 I2.4966 J2.4055
G03 X68.0342 Y48.8738 I1.0629 J6.1236
G01 X68.2578 Y48.9844
G03 X70.6057 Y53.2795 I-5797.5081 J3171.9798
G01 X70.7188 Y53.4844
G03 X70.9859 Y52.3710 I2.5972 J0.0344
G03 X72.0375 Y51.8596 I0.9693 J0.6563
G03 X72.8984 Y51.8906 I0.2160 J5.9738
G02 X70.7188 Y49.4063 I-14.7467 J10.7397
G03 X69.2695 Y47.1932 I1.1846 J-2.3568
G01 X69.2533 Y46.9589
G01 X69.2495 Y46.7151
G03 X69.4063 Y45.3516 I7.5346 J0.1753
G03 X71.7071 Y46.0919 I-0.5077 J5.5234
G03 X72.8010 Y47.8062 I-1.5849 J2.2176
G02 X73.9163 Y50.9631 I12.9692 J-2.8064
G02 X74.3465 Y51.4855 I1.3789 J-0.6970
G02 X74.7734 Y51.4453 I0.1918 J-0.2500
G03 X75.0326 Y50.4184 I3.0374 J0.2204
G03 X75.4733 Y50.2940 I0.3075 J0.2467
G03 X76.0859 Y50.4375 I-2.8109 J13.3815
G02 X75.0958 Y46.0807 I-10.5520 J0.1072
G02 X71.0000 Y40.4297 I-15.7606 J7.1134
G01 X70.1701 Y39.8812
G00 Z2.0000


;No. 2: Engraving 5
G00 X81.7981 Y81.5013 Z2.0000
G00 Z0.5000
G01 Z-1.0000 F180
G02 X80.0000 Y81.0703 I-2.3661 J5.9051 F900
G02 X74.3516 Y87.1406 I0.4748 J6.1049
G01 X74.3700 Y87.6201
G02 X80.0000 Y93.3281 I6.2312 J-0.5155
G02 X84.8101 Y84.0670 I-0.5588 J-6.1700
G02 X81.7981 Y81.5013 I-5.3007 J3.1719
G00 Z2.0000


;No. 3: Engraving 3
G00 X119.9784 Y32.2190 Z2.0000
G00 Z0.5000
G01 Z-1.0000 F180
G02 X114.5002 Y37.7823 I5.6721 J11.0642 F900
G02 X113.5156 Y40.8516 I11.1386 J5.2655
G02 X112.7891 Y45.6563 I226.5221 J36.7118
G03 X116.5136 Y44.7494 I2.4728 J2.0543
G03 X118.1243 Y49.2580 I-1.4689 J3.0668
G03 X115.5313 Y51.1641 I-2.9341 J-1.2747
G03 X113.9726 Y56.2307 I-2.4430 J2.0215
G03 X110.2068 Y54.8886 I-1.0406 J-3.0345
G03 X109.7524 Y53.4484 I2.8100 J-1.6784
G01 X109.7422 Y53.1797
G03 X109.8828 Y52.3125 I3.5964 J0.1382
G03 X106.0512 Y51.4312 I-1.3557 J-2.8761
G03 X105.2422 Y49.2656 I2.5279 J-2.1782
G01 X105.2534 Y48.9971
G03 X108.6411 Y46.0789 I3.2441 J0.3406
G03 X109.8828 Y46.3594 I-0.0672 J3.1861
G03 X107.6620 Y44.0544 I3211.3611 J-3096.2181
G02 X105.6412 Y42.0222 I-53.4160 J51.0964
G02 X98.8208 Y38.3960 I-10.1451 J10.8544
G02 X89.0000 Y40.4297 I-2.6649 J11.8608
G02 X84.4784 Y47.1692 I11.2896 J12.4608
G02 X83.9239 Y49.9016 I9.4452 J3.3393
G01 X83.9141 Y50.4375
G03 X84.7611 Y50.2841 I0.9266 J2.7006
G03 X85.0732 Y50.6666 I-0.1292 J0.4240
G03 X85.2266 Y51.4453 I-7.6153 J1.9042
G02 X85.7619 Y51.3989 I0.2472 J-0.2595
G02 X86.5814 Y49.8598 I-3.6134 J-2.9115
G02 X87.2563 Y47.5941 I-14.4331 J-5.5332
G03 X88.9600 Y45.7500 I2.5036 J0.6039
G03 X90.5938 Y45.3516 I2.6381 J7.2686
G03 X90.6602 Y47.6337 I-5.2570 J1.2951
G03 X89.2813 Y49.4063 I-2.5354 J-0.5497
G02 X87.1016 Y51.8906 I12.5670 J13.2241
G03 X88.5600 Y51.9762 I0.5453 J3.1769
G03 X89.2051 Y52.9194 I-0.5011 J1.0349
G03 X89.2813 Y53.4844 I-5.3854 J1.0132
G02 X91.6291 Y49.1893 I-5838.3511 J-3194.3057
G01 X91.7422 Y48.9844
G03 X94.3333 Y48.4457 I2.4128 J5.1049
G03 X96.7643 Y49.0313 I0.0809 J5.0028
G03 X97.8074 Y50.0750 I-1.8527 J2.8948
G02 X99.6750 Y52.7026 I65.3911 J-44.5018
G02 X101.7500 Y54.7734 I8.9660 J-6.9089
G02 X98.8127 Y58.5504 I13.6090 J13.6140
G02 X97.5547 Y60.7266 I37.5192 J23.1418
G03 X95.1867 Y62.1211 I-3.3444 J-2.9713
G03 X92.4165 Y62.0185 I-1.2220 J-4.4542
G01 X92.1529 Y61.8997
G03 X91.7386 Y61.5454 I0.3942 J-0.8805
G03 X90.5938 Y59.1328 I8.5089 J-5.5155
G03 X90.2308 Y60.5599 I-2.0472 J0.2390
G03 X88.7787 Y61.3519 I-1.8852 J-1.7293
G01 X88.5351 Y61.4056
G01 X88.2734 Y61.4531
G02 X90.6859 Y63.0034 I3.1653 J-2.2734
G01 X90.8750 Y63.0469
G03 X92.2914 Y65.5503 I-2.4803 J3.0558
G02 X92.6883 Y67.4543 I15.1314 J-2.1604
G01 X92.7734 Y67.6875
G02 X90.8629 Y67.2511 I-2.4874 J6.4900
G03 X88.5547 Y66.0938 I0.3873 J-3.6528
G02 X87.2768 Y63.7321 I-5.1914 J1.2826
G03 X86.6797 Y62.9063 I4.4132 J-3.8194
G03 X86.3830 Y64.0995 I-1.7132 J0.2076
G03 X85.2984 Y64.5829 I-1.1915 J-1.2147
G03 X84.7813 Y64.6406 I-1.2031 J-8.4408
G03 X86.6634 Y66.1295 I-1.5536 J3.8982
G03 X86.9253 Y69.3740 I-3.0050 J1.8753
G03 X85.4969 Y71.3139 I-4.0941 J-1.5187
G02 X82.4609 Y74.0859 I40.8412 J47.7785
G02 X106.3972 Y88.3867 I25.6370 J-15.7283
G02 X134.7987 Y72.1131 I1.5834 J-30.1574
G02 X138.1743 Y57.7881 I-26.7636 J-13.8668
G03 X138.6794 Y49.8826 I102.8424 J2.6022
G01 X138.7190 Y49.4325
G01 X138.7578 Y48.9844
G03 X135.3475 Y50.9772 I-3.7728 J-2.5420
G03 X134.6797 Y51.0234 I-0.8023 J-6.7428
G03 X136.0721 Y47.0966 I6.7197 J0.1724
G03 X138.8984 Y45.7969 I2.6732 J2.0902
G02 X139.0428 Y44.0919 I-17.5618 J-2.3453
G03 X139.0385 Y43.3633 I68.4192 J-0.7688
G01 X139.0391 Y43.3125
G02 X136.3528 Y43.5436 I-1.2195 J1.5526
G02 X135.0852 Y44.8712 I9.7848 J10.6121
G02 X133.5313 Y47.5313 I19.9447 J13.4348
G03 X131.6817 Y49.0021 I-2.8056 J-1.6297
G03 X129.5300 Y48.9389 I-0.9575 J-4.0628
G03 X126.7386 Y47.9194 I7.9160 J-26.0052
G02 X124.6824 Y47.3245 I-3.2943 J7.5358
G02 X123.3828 Y47.5313 I-0.3299 J2.1146
G02 X124.7671 Y45.5602 I-2.4868 J-3.2181
G02 X125.2948 Y43.2883 I-21.3933 J-6.1661
G03 X126.1321 Y41.1457 I5.3013 J0.8368
G03 X128.4453 Y39.5625 I3.5920 J2.7668
G03 X130.1441 Y39.6277 I0.6839 J4.3427
G02 X132.7289 Y40.1885 I68.5959 J-309.9222
G02 X134.6224 Y40.3091 I1.3214 J-5.8236
G02 X136.0399 Y39.0919 I-0.1100 J-1.5621
G01 X136.1272 Y38.5748
G01 X136.1328 Y37.9453
G02 X135.4197 Y37.2004 I-0.7885 J0.0411
G02 X133.7289 Y37.2482 I-0.6330 J7.5451
G03 X131.4849 Y36.9548 I-0.5814 J-4.2818
G03 X129.1719 Y33.8906 I1.6317 J-3.6368
G03 X132.5326 Y33.9438 I1.5526 J8.1068
G03 X133.3906 Y34.1953 I-0.9984 J4.9947
G02 X135.5395 Y35.4143 I5.5315 J-7.2476
G02 X136.5011 Y35.5273 I0.6725 J-1.5743
G02 X137.1641 Y34.7578 I-0.2687 J-0.9019
G02 X136.5799 Y32.9327 I-2.5147 J-0.2012
G02 X134.6435 Y31.3326 I-5.1060 J4.2077
G02 X128.7500 Y29.9766 I-5.2581 J9.3672
G02 X120.8719 Y31.7726 I0.6301 J20.9402
G01 X119.9784 Y32.2190
G00 Z2.0000


;No. 4: Engraving 2
G00 X118.7731 Y18.4778 Z2.0000
G00 Z0.5000
G01 Z-1.0000 F180
G03 X92.6013 Y21.6769 I-35.0942 J-178.4527 F900
G03 X56.4442 Y20.8002 I-12.5043 J-230.3608
G03 X36.2418 Y17.3661 I15.5209 J-152.4452
G01 X34.7847 Y17.0000
G01 X33.4297 Y16.6406
G01 X32.7031 Y19.1016
G02 X53.5840 Y23.0737 I38.0988 J-143.4098
G02 X89.7255 Y24.4133 I26.4160 J-224.4835
G02 X115.4762 Y21.7242 I-6.9335 J-191.0363
G02 X127.2969 Y19.1016 I-22.2162 J-128.0820
G01 X126.5703 Y16.6406
G03 X118.7731 Y18.4778 I-32.2568 J-119.4365
G00 Z2.0000


;No. 5: Engraving 1
G00 X125.2743 Y11.8937 Z2.0000
G00 Z0.5000
G01 Z-1.0000 F180
G03 X130.7561 Y13.2878 I-7.7451 J41.9306 F900
G01 X132.1355 Y13.8031
G01 X133.2747 Y14.3427
G01 X134.1641 Y14.9063
G03 X135.3016 Y16.2575 I-3.3469 J3.9719
G03 X135.5703 Y17.4375 I-2.3169 J1.1482
G02 X138.4121 Y28.1878 I58.0497 J-9.5944
G02 X145.3318 Y42.8827 I91.7113 J-34.2094
G02 X155.0000 Y57.6797 I134.3563 J-77.2301
G02 X151.2888 Y55.7308 I-11.7137 J17.7984
G02 X146.7054 Y55.1621 I-3.3122 J7.9396
G03 X144.4272 Y55.2933 I-1.7211 J-10.0413
G03 X142.8125 Y54.9375 I0.5715 J-6.4363
G03 X142.3906 Y54.7734 I1.0430 J-3.3065
G02 X142.2266 Y56.8125 I323.6869 J27.0699
G03 X147.2076 Y56.6776 I2.5675 J2.7773
G03 X143.7331 Y62.8692 I-2.3509 J2.7514
G03 X141.8047 Y61.3125 I1.1549 J-3.4035
G03 X140.4922 Y67.5469 I-39.5358 J-5.0680
G03 X146.0270 Y67.9749 I2.6000 J2.3779
G03 X145.0094 Y73.2447 I-2.9497 J2.1635
G03 X139.4962 Y70.4703 I-1.9123 J-3.0649
G01 X139.4844 Y70.1719
G03 X137.0000 Y75.3750 I-34.7328 J-13.3895
G03 X141.8474 Y76.6703 I1.7155 J3.2981
G03 X135.6682 Y80.4949 I-3.0948 J1.9040
G03 X135.1370 Y78.8843 I3.0403 J-1.8956
G01 X135.1250 Y78.5859
G03 X135.1219 Y78.3552 I13.8326 J-0.3009
G03 X135.1250 Y78.2813 I1.1427 J0.0108
G03 X131.9375 Y82.1953 I-28.5596 J-20.0032
G03 X131.4983 Y89.4489 I-0.1645 J3.6301
G03 X128.1761 Y86.1267 I0.2921 J-3.6144
G01 X128.1641 Y85.8281
G03 X128.1612 Y85.6032 I9.1483 J-0.2270
G03 X128.1641 Y85.5469 I1.0802 J0.0258
G03 X125.2578 Y87.7031 I-20.8170 J-25.0211
G03 X127.1822 Y92.9703 I-1.0626 J3.3733
G03 X121.6835 Y93.8145 I-3.1148 J-1.9582
G03 X120.3359 Y91.0547 I2.2153 J-2.7906
G01 X120.3363 Y91.0025
G03 X120.4766 Y90.0469 I3.3932 J0.0100
G03 X116.8438 Y91.3359 I-12.5615 J-29.6372
G03 X118.2838 Y94.4001 I-2.0744 J2.8454
G03 X115.1177 Y97.6869 I-3.7335 J-0.4280
G03 X110.9026 Y94.4001 I-0.5966 J-3.5810
G01 X110.8906 Y94.1016
G03 X111.4766 Y92.2031 I3.6888 J0.0989
G03 X107.2813 Y92.3672 I-3.6211 J-38.8744
G03 X108.2858 Y94.5543 I-2.6469 J2.5399
G03 X105.6802 Y98.1145 I-3.6542 J0.0593
G03 X100.8828 Y94.6875 I-1.1667 J-3.4381
G01 X100.8871 Y94.5108
G03 X102.3359 Y91.7813 I3.7304 J0.2307
G03 X97.5547 Y90.6094 I5.3850 J-32.3104
G03 X96.3658 Y94.9957 I-3.4580 J1.4170
G03 X91.0359 Y93.9781 I-2.1746 J-3.0769
G03 X90.4531 Y92.0625 I2.8751 J-1.9212
G01 X90.4615 Y91.8245
G03 X92.6234 Y88.9011 I3.5047 J0.3307
G01 X92.8361 Y88.8122
G01 X93.0547 Y88.7344
G03 X88.6953 Y85.9688 I15.9990 J-30.0373
G03 X88.6730 Y88.9799 I-6.3677 J1.4585
G03 X82.1797 Y96.1172 I-9.3762 J-2.0079
G02 X81.5938 Y107.0156 I275.6554 J20.2852
G02 X91.3203 Y106.2891 I-2.3107 J-96.4025
G01 Y111.6563
G01 X91.2895 Y111.6529
G02 X81.5938 Y111.0703 I-12.4850 J126.8041
G02 X81.9066 Y118.9115 I98.6372 J-0.0081
G02 X82.1797 Y121.5234 I62.3412 J-5.1987
G01 X77.8203
G02 X78.4063 Y111.0703 I-87.4501 J-10.1449
G02 X68.6797 Y111.6563 I2.6870 J125.6281
G01 Y106.2891
G01 X68.7107 Y106.2933
G02 X78.4063 Y107.0156 I12.0966 J-96.9385
G02 X77.8203 Y96.1172 I-276.2366 J9.3865
G03 X71.1415 Y87.0811 I2.8141 J-9.0663
G03 X71.3047 Y85.9688 I11.9410 J1.1840
G03 X66.9453 Y88.7344 I-20.3583 J-27.2716
G03 X69.4735 Y91.3661 I-1.0111 J3.5015
G03 X67.4753 Y95.2907 I-3.5334 J0.6719
G03 X62.1759 Y92.3611 I-1.6849 J-3.2100
G01 X62.1641 Y92.0625
G03 X62.3039 Y91.0197 I3.9604 J0.0004
G03 X62.4453 Y90.6094 I3.2076 J0.8758
G03 X57.6641 Y91.7813 I-10.1662 J-31.1385
G03 X56.3589 Y98.1930 I-2.1644 J2.8981
G03 X51.7623 Y95.2772 I-0.8877 J-3.6815
G01 X51.7240 Y94.9859
G01 X51.7109 Y94.6875
G03 X52.6351 Y92.4673 I3.5439 J0.1727
G01 X52.7188 Y92.3672
G03 X48.5234 Y92.2031 I-0.5742 J-39.0385
G03 X47.3922 Y97.1912 I-2.9486 J1.9536
G03 X41.7545 Y94.6919 I-1.9356 J-3.2421
G01 X41.7162 Y94.4001
G01 X41.7031 Y94.1016
G03 X43.1563 Y91.3359 I3.5853 J0.1192
G03 X39.5234 Y90.0469 I8.9287 J-30.9262
G03 X37.8459 Y94.1443 I-3.4236 J0.9904
G03 X32.3280 Y91.6450 I-1.9312 J-3.0771
G01 X32.2931 Y91.3532
G01 X32.2813 Y91.0547
G01 X32.2888 Y90.8166
G03 X34.7422 Y87.7031 I3.5010 J0.2354
G03 X31.8359 Y85.5469 I17.9108 J-27.1773
G03 X31.5511 Y87.2441 I-4.4042 J0.1333
G03 X24.6056 Y86.1267 I-3.3378 J-1.3976
G01 X24.5938 Y85.8281
G01 X24.6051 Y85.5366
G03 X28.0625 Y82.1953 I3.5983 J0.2639
G03 X24.8750 Y78.2813 I25.3720 J-23.9172
G03 X24.5902 Y79.9982 I-4.4806 J0.1388
G03 X17.6094 Y78.5859 I-3.3425 J-1.4372
G01 X17.6214 Y78.2874
G03 X22.5976 Y75.1941 I3.6586 J0.3364
G03 X23.0000 Y75.3750 I-1.1466 J3.0886
G03 X20.5156 Y70.1719 I32.2485 J-18.5926
G03 X13.2734 I-3.6211 J-0.0117
G03 X15.7563 Y66.5978 I3.8262 J0.0086
G03 X19.5078 Y67.5469 I1.1475 J3.3536
G03 X18.1953 Y61.3125 I38.2233 J-11.3024
G03 X11.5509 Y59.7359 I-3.0702 J-1.8502
G01 X11.5391 Y59.4375
G01 X11.5509 Y59.1389
G03 X16.1775 Y55.9321 I3.6264 J0.2910
G03 X17.7734 Y56.8125 I-0.8032 J3.3427
G02 X17.6094 Y54.7734 I-323.8510 J25.0308
G03 X15.0952 Y55.3138 I-2.4646 J-5.3479
G03 X12.8356 Y55.1136 I1.3669 J-28.2707
G02 X8.7112 Y55.7308 I-0.8342 J8.5137
G02 X5.0000 Y57.6797 I8.0025 J19.7473
G02 X15.7996 Y40.8498 I-120.0493 J-88.9151
G02 X21.5879 Y28.1878 I-79.3689 J-43.9363
G02 X24.4297 Y17.4375 I-53.4711 J-19.8857
G03 X24.5025 Y16.7957 I2.8730 J0.0008
G03 X25.4915 Y15.2398 I3.1374 J0.9021
G03 X25.8359 Y14.9063 I16.6178 J16.8146
G01 X26.7253 Y14.3427
G01 X27.8645 Y13.8031
G03 X32.6842 Y12.3326 I12.0879 J30.9857
G03 X42.0183 Y10.7388 I20.5583 J92.2730
G03 X60.9839 Y9.2056 I29.9286 J252.1414
G03 X102.5177 Y9.3856 I18.9171 J426.9443
G03 X117.9817 Y10.7388 I-11.5523 J221.0450
G01 X120.5975 Y11.0963
G01 X123.0316 Y11.4815
G01 X125.2743 Y11.8937
G00 Z2.0000
G00 X0.0000 Y0.0000

M05
