;Project front-lid-bracket
;Created by Estlcam version 11 build 11.117
;Machining time about 00:05:50 hours

G92 X0 Y0 Z0
G90

G00 X0.0000 Y0.0000 Z0.0000
G00 Z2.0000


;No. 1: Drill 1
G00 X43.0000 Y45.0000
G00 Z0.5000
G01 Z-5.0000 F180 S24000
G00 Z0.5000
G00 Z-4.5000
G01 Z-10.0000
G00 Z0.5000
G00 Z-9.5000
G01 Z-15.0000
G00 Z2.0000


;No. 2: Drill 2
G00 X43.0000 Y15.0000 Z2.0000
G00 Z0.5000
G01 Z-5.0000 F180
G00 Z0.5000
G00 Z-4.5000
G01 Z-10.0000
G00 Z0.5000
G00 Z-9.5000
G01 Z-15.0000
G00 Z2.0000


;No. 3: Part 3
G00 X60.4996 Y26.9755 Z2.0000
G00 Z0.5000
G01 Z-5.0000 F180
G01 X60.4993 Y1.9462 F480
G02 X56.3000 Y-2.2000 I-4.1999 J0.0541
G01 X1.9460 Y-2.1993
G02 X-2.2000 Y2.0000 I0.0543 J4.1999
G01 X-2.1997 Y27.0246
G01 X-2.1996 Y33.0246
G01 X-2.1993 Y58.0541
G02 X2.0000 Y62.2000 I4.1999 J-0.0543
G01 X7.9800
G02 X12.2000 Y58.0000 I0.0187 J-4.2013
G01 Y18.2000
G01 X11.4142 Y17.4142
G01 X12.2000 Y18.2000
G01 X26.1000
G01 X26.8858 Y17.4142
G01 X26.1000 Y18.2000
G01 X26.1007 Y58.0538
G02 X30.3000 Y62.2000 I4.1999 J-0.0541
G01 X56.2800
G02 X60.5000 Y58.0000 I0.0191 J-4.2008
G01 X60.4997 Y32.9755
G01 X60.4996 Y26.9755
G01 Z-10.0000 F180
G01 X60.4993 Y1.9462 F480
G02 X56.3000 Y-2.2000 I-4.1999 J0.0541
G01 X1.9460 Y-2.1993
G02 X-2.2000 Y2.0000 I0.0543 J4.1999
G01 X-2.1997 Y27.0246
G01 X-2.1996 Y33.0246
G01 X-2.1993 Y58.0541
G02 X2.0000 Y62.2000 I4.1999 J-0.0543
G01 X7.9800
G02 X12.2000 Y58.0000 I0.0187 J-4.2013
G01 Y18.2000
G01 X11.4142 Y17.4142
G01 X12.2000 Y18.2000
G01 X26.1000
G01 X26.8858 Y17.4142
G01 X26.1000 Y18.2000
G01 X26.1007 Y58.0538
G02 X30.3000 Y62.2000 I4.1999 J-0.0541
G01 X56.2800
G02 X60.5000 Y58.0000 I0.0191 J-4.2008
G01 X60.4997 Y32.9755
G01 X60.4996 Y26.9755
G01 Z-15.0000 F180
G01 X60.4993 Y1.9462 F480
G02 X56.3000 Y-2.2000 I-4.1999 J0.0541
G01 X1.9460 Y-2.1993
G02 X-2.2000 Y2.0000 I0.0543 J4.1999
G01 X-2.1997 Y27.0246
G00 Z-13.0000
G01 X-2.1996 Y33.0246
G01 Z-15.0000 F180
G01 X-2.1993 Y58.0541 F480
G02 X2.0000 Y62.2000 I4.1999 J-0.0543
G01 X7.9800
G02 X12.2000 Y58.0000 I0.0187 J-4.2013
G01 Y18.2000
G01 X11.4142 Y17.4142
G01 X12.2000 Y18.2000
G01 X26.1000
G01 X26.8858 Y17.4142
G01 X26.1000 Y18.2000
G01 X26.1007 Y58.0538
G02 X30.3000 Y62.2000 I4.1999 J-0.0541
G01 X56.2800
G02 X60.5000 Y58.0000 I0.0191 J-4.2008
G01 X60.4997 Y32.9755
G00 Z-13.0000
G01 X60.4996 Y26.9755
G00 Z2.0000


;No. 4: Part 3
G00 X60.4996 Y26.9755 Z2.0000
G00 Z0.5000
G01 Z-5.0000 F180
G01 X60.2997 F480
G01 X60.2994 Y1.9511
G02 X56.3000 Y-2.0000 I-4.0001 J0.0493
G01 X1.9509 Y-1.9994
G02 X-2.0000 Y2.0000 I0.0493 J3.9999
G01 X-1.9997 Y27.0246
G01 Y33.0246
G01 X-1.9994 Y58.0491
G02 X2.0000 Y62.0000 I4.0000 J-0.0495
G01 X7.9800
G02 X12.0000 Y58.0000 I0.0192 J-4.0008
G01 Y18.0000
G01 X11.4142 Y17.4142
G01 X12.0000 Y18.0000
G01 X26.3000
G01 X26.8858 Y17.4142
G01 X26.3000 Y18.0000
G01 X26.3006 Y58.0489
G02 X30.3000 Y62.0000 I4.0000 J-0.0492
G01 X56.2800
G02 X60.3000 Y58.0000 I0.0190 J-4.0009
G01 X60.2997 Y32.9755
G01 Y26.9755
G01 X60.4996
G01 Z-10.0000 F180
G01 X60.2997 F480
G01 X60.2994 Y1.9511
G02 X56.3000 Y-2.0000 I-4.0001 J0.0493
G01 X1.9509 Y-1.9994
G02 X-2.0000 Y2.0000 I0.0493 J3.9999
G01 X-1.9997 Y27.0246
G01 Y33.0246
G01 X-1.9994 Y58.0491
G02 X2.0000 Y62.0000 I4.0000 J-0.0495
G01 X7.9800
G02 X12.0000 Y58.0000 I0.0192 J-4.0008
G01 Y18.0000
G01 X11.4142 Y17.4142
G01 X12.0000 Y18.0000
G01 X26.3000
G01 X26.8858 Y17.4142
G01 X26.3000 Y18.0000
G01 X26.3006 Y58.0489
G02 X30.3000 Y62.0000 I4.0000 J-0.0492
G01 X56.2800
G02 X60.3000 Y58.0000 I0.0190 J-4.0009
G01 X60.2997 Y32.9755
G01 Y26.9755
G01 X60.4996
G01 Z-15.0000 F180
G01 X60.2997 F480
G01 X60.2994 Y1.9511
G02 X56.3000 Y-2.0000 I-4.0001 J0.0493
G01 X1.9509 Y-1.9994
G02 X-2.0000 Y2.0000 I0.0493 J3.9999
G01 X-1.9997 Y27.0246
G01 X-2.1997
G00 Z-13.0000
G01 X-1.9997
G01 Y33.0246
G01 X-2.1996
G01 Z-15.0000 F180
G01 X-1.9997 F480
G01 X-1.9994 Y58.0491
G02 X2.0000 Y62.0000 I4.0000 J-0.0495
G01 X7.9800
G02 X12.0000 Y58.0000 I0.0192 J-4.0008
G01 Y18.0000
G01 X11.4142 Y17.4142
G01 X12.0000 Y18.0000
G01 X26.3000
G01 X26.8858 Y17.4142
G01 X26.3000 Y18.0000
G01 X26.3006 Y58.0489
G02 X30.3000 Y62.0000 I4.0000 J-0.0492
G01 X56.2800
G02 X60.3000 Y58.0000 I0.0190 J-4.0009
G01 X60.2997 Y32.9755
G01 X60.4997
G00 Z-13.0000
G01 X60.2997
G01 Y26.9755
G01 X60.4996
G00 Z2.0000
G00 X0.0000 Y0.0000

M05
